X:49
T:Steyrer Tanz in G, nr. 5
C:traditionell
R:Steirer
A:Hallstatt, Salzkammergut
B:Corpus Musicae Popularis Austriacae (COMPA), 5.Band: J.M.Schmalnauer " Tanz Musik", Verlag Boehlau, Wien 1996
S:manuscript des Johann Michael Schmalnauer um 1820
N:im der quelle in G
Z:abc transcription Simon Wascher
F:http://simonwascher.info/TradArchiv/
M:3/4
L:1/8
K:G
V:1
%violino 1mo
dc |\
(Bd>)(gfgB) | [e2c2] ">"[a4 c4] | [A2 D2] ">"[f4 A4] | agfedc |\
(Bd>)(gfgB) | [e2c2] ">"[a4 c4] | [A2 D2] ">"[f4 A4] | g4 :|
dc |\
(Bd>)(gfgB) | ceacac | DAfAfA | agfedc |\
(Bd>)(gfgB) | ceacac | DAfAfA | g4 :|
V:2
%violino 2do
(ba) |\
(dg>)(babg) | a2 [c'4 A4] | f2 [a4 A4] | c'bagfe |\
(dg>)(babg) | a2 [c'4 A4] | f2 [a4 A4] | b4 :|
ba |\
(dg>)(babg) | fac'Ac'A | dfadad | c'bagfe |\
(dg>)(babg) | fac'Ac'A | dfadad | b4 :|
